Newaita/actions/symbolic/go-previous-symbolic.svg

<svg height="16" viewBox="0 0 16 16" width="16" xmlns="http://www.w3.org/2000/svg"><path d="m7.917969 2.101562c-.257813.007813-.5.113282-.679688.296876l-4.964843 4.964843c-.386719.386719-.386719 1.015625 0 1.402344l4.964843 4.960937c.246094.253907.617188.355469.960938.265626.347656-.089844.617187-.359376.707031-.707032.089844-.34375-.011719-.710937-.265625-.960937l-3.269531-3.269531h8.191406c.183594 0 .328125-.148438.328125-.328126v-1.324218c0-.183594-.144531-.332032-.328125-.332032h-8.191406l3.269531-3.265624c.292969-.285157.382813-.722657.222656-1.101563-.160156-.375-.535156-.617187-.945312-.601563zm0 0" fill="#424242"/></svg>

<?xml version="1.0" encoding="UTF-8"?>
<svg xmlns="http://www.w3.org/2000/svg" xmlns:xlink="http://www.w3.org/1999/xlink" width="16px" height="16px" viewBox="0 0 16 16" version="1.1">
<g id="surface1">
<path style=" stroke:none;fill-rule:nonzero;fill:rgb(25.882354%,25.882354%,25.882354%);fill-opacity:1;" d="M 7.917969 2.101562 C 7.660156 2.109375 7.417969 2.214844 7.238281 2.398438 L 2.273438 7.363281 C 1.886719 7.75 1.886719 8.378906 2.273438 8.765625 L 7.238281 13.726562 C 7.484375 13.980469 7.855469 14.082031 8.199219 13.992188 C 8.546875 13.902344 8.816406 13.632812 8.90625 13.285156 C 8.996094 12.941406 8.894531 12.574219 8.640625 12.324219 L 5.371094 9.054688 L 13.5625 9.054688 C 13.746094 9.054688 13.890625 8.90625 13.890625 8.726562 L 13.890625 7.402344 C 13.890625 7.21875 13.746094 7.070312 13.5625 7.070312 L 5.371094 7.070312 L 8.640625 3.804688 C 8.933594 3.519531 9.023438 3.082031 8.863281 2.703125 C 8.703125 2.328125 8.328125 2.085938 7.917969 2.101562 Z M 7.917969 2.101562 "/>
</g>
</svg>
